!!!COM: Schubert, Franz
!!!CDT: 1797/01/31-1828/11/19
!!!SCT: D. 365
!!!OPR: 36 Originaltänze
!!!OPS: 9
!!!ONM: 8
**kern	**kern
*part1	*part1
*staff2	*staff1
*clefF4	*clefG2
*k[b-e-a-d-]	*k[b-e-a-d-]
*M3/4	*M3/4
=	=
*A-:	*
8cL	4ee-
8e-J	.
=1	=1
8A-L	(4cc
8e-J	.
8cL	4ee-^
8e-J	.
8B-L	4dd-)
8e-J	.
=2	=2
8GL	(4b-
8e-J	.
8B-L	4dd-^
8e-J	.
8A-L	4cc)
8e-J	.
=3	=3
8CL	4a-
8e-J	.
8CL	(4a-
8e-J	.
8E-L	4b-)
8e-J	.
=4	=4
8A-L	(2cc
8e-J	.
8A-L	.
8e-J	.
8cL	4ee-)
8e-J	.
!!linebreak:original
=5	=5
8GL	(4b-
8e-J	.
8d-L	4ff^
8e-J	.
8cL	4ee-)
8e-J	.
=6	=6
8FL	(4ddn
8e-J	.
8GL	4dd-X
8e-J	.
8A-L	4cc)
8e-J	.
=7	=7
8E-L	(4cc
8e-J	.
8d-L	4b-
8e-J	.
8B-L	4g)
8e-J	.
=8	=8
4A- 4c	2a-
4AA-	.
=:|!|:	=:|!|:
4r	4ee-
=9	=9
8AnL 8c	(4cc
8fJ	.
8FL	4.gg-X^
8fJ	.
8AL 8c	.
8fJ	8ff)
!!linebreak:original
=10	=10
8B-L 8d-	(4ee-
8fJ	.
8FL	4dd-)
8fJ	.
8B-L 8d-	4cc
8fJ	.
=11	=11
8GL 8d-	(4b-
8e-J	.
8E-L	4.ff
8e-J	.
8GL 8d-	.
8e-J	8ee-)
=12	=12
8A-L 8c	(4dd-
8e-J	.
8A-L 8c	4cc
8e-J	.
8E-L	4b-)
8e-J	.
=13	=13
8CL	4a-
8e-J	.
8CL	4a- 4aa-
8e-J	.
8E-L	4b- 4bb-
8e-J	.
=14	=14
8A-L	2cc 2ccc
8e-J	.
8A-L	.
8e-J	.
8AnL	4ee- 4gg-X 4eee-
8e-J	.
!!linebreak:original
=15	=15
*	*^
8B-L	4ee- 4eee-	2ff
8e-J	.	.
8B-L	4dd- 4ddd-	.
8e-J	.	.
8E-L 8d-	4b- 4gg 4bb-	4r
8e-J	.	.
*	*v	*v
=16	=16
4A- 4c	2a- 2aa-
4AA-	.
=:|!	=:|!
*-	*-
!!!system-decoration: {(s1,s2)}
!!!AGN: Walzer
!!!EED: Wolfgang Drescher
!!!END: 2025/12/02
!!!ENC: Florian Moldaschl
!!!EEV: 2025/12/02
!!!title: @{OPR}, @{SCT} №@{ONM}